dist/files/navbar_inPlant.svg

<svg width="63" height="42" viewBox="0 0 63 42" fill="none" xmlns="http://www.w3.org/2000/svg">
<path d="M15.7769 21.0196C15.7769 20.562 15.4093 20.1914 14.9546 20.1914H6.21214C5.75825 20.1914 5.39062 20.562 5.39062 21.0196C5.39062 21.4763 5.75825 21.8477 6.21214 21.8477H14.9546C15.4093 21.8477 15.7769 21.4763 15.7769 21.0196Z" fill="#000066"/>
<path d="M14.9546 7.08203H6.21214C5.75825 7.08203 5.39062 7.45262 5.39062 7.91018C5.39062 8.36773 5.75825 8.73832 6.21214 8.73832H14.9546C15.4093 8.73832 15.7769 8.36773 15.7769 7.91018C15.7769 7.45262 15.4093 7.08203 14.9546 7.08203Z" fill="#000066"/>
<mask id="mask0_5175_1938" style="mask-type:luminance" maskUnits="userSpaceOnUse" x="0" y="13" width="13" height="3">
<path d="M0 13.4922H12.4864V15.3647H0V13.4922Z" fill="white"/>
</mask>
<g mask="url(#mask0_5175_1938)">
<path d="M0.822325 15.2969H11.6464C12.1003 15.2969 12.4679 14.9263 12.4679 14.4688C12.4679 14.0112 12.1003 13.6406 11.6464 13.6406H0.822325C0.367628 13.6406 0 14.0112 0 14.4688C0 14.9263 0.367628 15.2969 0.822325 15.2969Z" fill="#000066"/>
</g>
<path d="M53.8027 34.0469C52.8772 34.0469 52.1274 34.8027 52.1274 35.7349C52.1274 36.6678 52.8772 37.4228 53.8027 37.4228C54.7274 37.4228 55.478 36.6678 55.478 35.7349C55.478 34.8027 54.7274 34.0469 53.8027 34.0469Z" fill="#000066"/>
<path d="M22.5342 34.0469C21.6087 34.0469 20.8589 34.8027 20.8589 35.7349C20.8589 36.6678 21.6087 37.4228 22.5342 37.4228C23.4589 37.4228 24.2087 36.6678 24.2087 35.7349C24.2087 34.8027 23.4589 34.0469 22.5342 34.0469Z" fill="#000066"/>
<path d="M57.2398 24.1729H47.9402V14.8008H51.1562L57.2398 20.9327V24.1729ZM46.2964 13.1445V25.8292H58.8836V20.2467L51.8366 13.1445H46.2964Z" fill="#000066"/>
<mask id="mask1_5175_1938" style="mask-type:luminance" maskUnits="userSpaceOnUse" x="13" y="0" width="50" height="42">
<path d="M13.312 0H62.9998V41.6299H13.312V0Z" fill="white"/>
</mask>
<g mask="url(#mask1_5175_1938)">
<path d="M61.3557 34.1083C61.3557 34.5374 61.009 34.8869 60.5841 34.8869H59.5812C59.1701 32.0408 56.7394 29.8457 53.8024 29.8457C50.8654 29.8457 48.4339 32.0408 48.0227 34.8869H28.3119C27.9008 32.0408 25.4701 29.8457 22.5331 29.8457C19.5969 29.8457 17.167 32.04 16.755 34.8853C15.7747 34.8771 14.9798 34.0717 14.9798 33.0827V28.6656H43.7918V10.6594H49.9608C51.8586 10.6594 53.642 11.4038 54.9835 12.7562L59.2757 17.0806C60.6172 18.4329 61.3557 20.2306 61.3557 22.1421V34.1083ZM53.8024 39.9744C51.4846 39.9744 49.598 38.0743 49.598 35.7378C49.598 33.4021 51.4846 31.502 53.8024 31.502C56.1202 31.502 58.0059 33.4021 58.0059 35.7378C58.0059 38.0743 56.1202 39.9744 53.8024 39.9744ZM22.5331 39.9744C20.2153 39.9744 18.3304 38.0743 18.3304 35.7378C18.3304 33.4021 20.2153 31.502 22.5331 31.502C24.8509 31.502 26.7366 33.4021 26.7366 35.7378C26.7366 38.0743 24.8509 39.9744 22.5331 39.9744ZM56.146 11.5851C54.4941 9.91985 52.2972 9.00393 49.9608 9.00393H43.7918V2.62015C43.7918 1.17517 42.626 0 41.1918 0H15.9351C14.5017 0 13.3359 1.17517 13.3359 2.62015V4.9331C13.3359 5.39066 13.7036 5.76125 14.1575 5.76125C14.6122 5.76125 14.9798 5.39066 14.9798 4.9331V2.62015C14.9798 2.08865 15.4079 1.65629 15.9351 1.65629H41.1918C41.719 1.65629 42.1488 2.08865 42.1488 2.62015V27.0094H14.9798V24.4095C14.9798 23.952 14.6122 23.5814 14.1575 23.5814C13.7036 23.5814 13.3359 23.952 13.3359 24.4095V33.0827C13.3359 34.9828 14.8645 36.5285 16.747 36.5407C17.138 39.4104 19.58 41.6307 22.5331 41.6307C25.4862 41.6307 27.9282 39.412 28.32 36.5432H48.0163C48.4081 39.412 50.8493 41.6307 53.8024 41.6307C56.7555 41.6307 59.1967 39.412 59.5885 36.5432H60.5841C61.916 36.5432 62.9995 35.4509 62.9995 34.1083V22.1421C62.9995 19.7877 62.0893 17.5747 60.4374 15.9095L56.146 11.5851Z" fill="#000066"/>
</g>
</svg>

<svg xmlns="http://www.w3.org/2000/svg" width="63" height="42" fill="none"><path fill="#006" d="M15.777 21.02a.825.825 0 0 0-.822-.829H6.212a.825.825 0 0 0-.821.829c0 .456.367.828.821.828h8.743a.825.825 0 0 0 .822-.828ZM14.955 7.082H6.212a.825.825 0 0 0-.821.828c0 .458.367.828.821.828h8.743c.454 0 .822-.37.822-.828a.825.825 0 0 0-.822-.828Z"/><mask id="a" width="13" height="3" x="0" y="13" maskUnits="userSpaceOnUse" style="mask-type:luminance"><path fill="#fff" d="M0 13.492h12.486v1.873H0v-1.873Z"/></mask><g mask="url(#a)"><path fill="#006" d="M.822 15.297h10.824c.454 0 .822-.37.822-.828a.825.825 0 0 0-.822-.828H.822a.825.825 0 0 0-.822.828c0 .457.368.828.822.828Z"/></g><path fill="#006" d="M53.803 34.047c-.926 0-1.676.756-1.676 1.688 0 .933.75 1.688 1.676 1.688.924 0 1.675-.755 1.675-1.688 0-.932-.75-1.688-1.675-1.688ZM22.534 34.047c-.925 0-1.675.756-1.675 1.688 0 .933.75 1.688 1.675 1.688a1.68 1.68 0 0 0 1.675-1.688c0-.932-.75-1.688-1.675-1.688ZM57.24 24.173h-9.3V14.8h3.216l6.084 6.132v3.24ZM46.296 13.145v12.684h12.588v-5.582l-7.047-7.102h-5.54Z"/><mask id="b" width="50" height="42" x="13" y="0" maskUnits="userSpaceOnUse" style="mask-type:luminance"><path fill="#fff" d="M13.312 0H63v41.63H13.312V0Z"/></mask><g mask="url(#b)"><path fill="#006" d="M61.356 34.108c0 .43-.347.779-.772.779h-1.003c-.41-2.846-2.842-5.041-5.779-5.041s-5.368 2.195-5.78 5.04h-19.71c-.411-2.845-2.842-5.04-5.779-5.04-2.936 0-5.366 2.194-5.778 5.04a1.799 1.799 0 0 1-1.775-1.803v-4.417h28.812V10.659h6.169c1.898 0 3.681.745 5.023 2.097l4.292 4.325a7.14 7.14 0 0 1 2.08 5.061v11.966Zm-7.554 5.866c-2.317 0-4.204-1.9-4.204-4.236s1.887-4.236 4.204-4.236c2.318 0 4.204 1.9 4.204 4.236s-1.886 4.236-4.204 4.236Zm-31.269 0c-2.318 0-4.203-1.9-4.203-4.236s1.885-4.236 4.203-4.236c2.318 0 4.204 1.9 4.204 4.236s-1.886 4.236-4.204 4.236Zm33.613-28.389a8.654 8.654 0 0 0-6.185-2.581h-6.17V2.62c0-1.445-1.165-2.62-2.6-2.62H15.936c-1.433 0-2.6 1.175-2.6 2.62v2.313c0 .458.369.828.822.828.455 0 .823-.37.823-.828V2.62a.96.96 0 0 1 .955-.964h25.257c.527 0 .957.433.957.964v24.39h-27.17v-2.6a.825.825 0 0 0-.821-.829.825.825 0 0 0-.822.829v8.673c0 1.9 1.528 3.446 3.411 3.458.391 2.87 2.833 5.09 5.786 5.09 2.953 0 5.395-2.219 5.787-5.088h19.696c.392 2.869 2.833 5.088 5.786 5.088 2.953 0 5.395-2.219 5.787-5.088h.995A2.428 2.428 0 0 0 63 34.108V22.142c0-2.354-.91-4.567-2.562-6.232l-4.291-4.325Z"/></g></svg>
